dist/img/advantages/05.svg

<?xml version="1.0" encoding="UTF-8"?> <svg xmlns="http://www.w3.org/2000/svg" width="300" height="300" viewBox="0 0 300 300" fill="none"> <path d="M288.573 218.244L266.012 202.36V43H31.5446V202.483L10.8665 218.361L10.8696 218.365C9.73433 219.237 9 220.605 9 222.147V252.226C9 254.862 11.1377 257 13.7735 257H285.825C288.461 257 290.599 254.862 290.599 252.226V222.205C290.618 220.66 289.884 219.166 288.573 218.244ZM41.0917 142.298H49.7811V143.97H41.0917V142.298ZM41.0917 153.516H49.7811V200.063H41.0917V153.516ZM59.3282 167.491L72.6042 200.063H59.3282V167.491ZM82.915 200.063L60.236 144.425C68.1696 137.086 92.1995 113.667 102.473 90.3837H195.084C205.358 113.668 229.388 137.086 237.321 144.425L214.642 200.063H82.915ZM256.465 143.969H247.775V142.297H256.465V143.969ZM238.228 167.491V200.063H224.952L238.228 167.491ZM247.775 153.516H256.465V200.063H247.775V153.516ZM256.465 132.75H247.775V72.2435H256.465V132.75ZM238.228 113.308L224.738 72.2435H238.228V113.308ZM214.688 72.2435L232.383 126.106C218.141 111.003 200.842 88.9031 199.93 72.2435H214.688ZM190.373 72.2435C190.487 75.0471 190.956 77.9232 191.709 80.8366H105.849C106.601 77.9232 107.069 75.0479 107.184 72.2435H190.373ZM65.1909 126.052L82.8681 72.2435H97.631C96.7161 89.7822 78.482 112.047 65.1909 126.052ZM59.3282 113.308V72.2435H72.819L59.3282 113.308ZM49.7811 132.75H41.0917V72.2435H49.7811V132.75ZM259.726 209.61L270.753 217.373H27.8284L37.9388 209.61H259.726ZM256.465 52.5471V62.6964H41.0917V52.5471H256.465ZM281.052 247.453H18.5471V226.92H281.052V247.453Z" fill="#ffffff"></path> </svg>

<svg xmlns="http://www.w3.org/2000/svg" width="300" height="300" fill="none"><path d="M288.573 218.244l-22.561-15.884V43H31.545v159.483l-20.678 15.878.003.004A4.758 4.758 0 009 222.147v30.079A4.774 4.774 0 0013.774 257h272.051a4.775 4.775 0 004.774-4.774v-30.021a4.77 4.77 0 00-2.026-3.961zM41.092 142.298h8.69v1.672h-8.69v-1.672zm0 11.218h8.69v46.547h-8.69v-46.547zm18.236 13.975l13.276 32.572H59.328v-32.572zm23.587 32.572l-22.679-55.638c7.934-7.339 31.964-30.758 42.237-54.041h92.611c10.274 23.284 34.304 46.702 42.237 54.041l-22.679 55.638H82.915zm173.55-56.094h-8.69v-1.672h8.69v1.672zm-18.237 23.522v32.572h-13.276l13.276-32.572zm9.547-13.975h8.69v46.547h-8.69v-46.547zm8.69-20.766h-8.69V72.243h8.69v60.507zm-18.237-19.442l-13.49-41.065h13.49v41.065zm-23.54-41.065l17.695 53.863c-14.242-15.103-31.541-37.203-32.453-53.862h14.758zm-24.315 0c.114 2.804.583 5.68 1.336 8.594h-85.86c.752-2.914 1.22-5.79 1.335-8.594h83.189zM65.191 126.052l17.677-53.809h14.763c-.915 17.54-19.149 39.804-32.44 53.809zm-5.863-12.744V72.243H72.82l-13.49 41.065zm-9.547 19.442h-8.69V72.243h8.69v60.507zm209.945 76.86l11.027 7.763H27.828l10.11-7.763h221.788zm-3.261-157.063v10.15H41.092v-10.15h215.373zm24.587 194.906H18.547V226.92h262.505v20.533z" fill="#fff"/></svg>
